templates/construction-template/img/footer-mail.svg

<!-- Generated by IcoMoon.io -->
<svg version="1.1" xmlns="http://www.w3.org/2000/svg" width="16" height="16" viewBox="0 0 16 16">
<title>mail</title>
<path fill="#ffc133" d="M14 2.5h-12c-1.105 0-2 0.896-2 2v6.5c0 1.104 0.895 2 2 2h12c1.104 0 2-0.896 2-2v-6.5c0-1.104-0.896-2-2-2zM1 5.125l3.499 2.625-3.499 2.625v-5.25zM15 11c0 0.552-0.449 1-1 1h-12c-0.551 0-1-0.448-1-1l3.916-2.938 2.184 1.639c0.266 0.199 0.583 0.3 0.9 0.3s0.633-0.101 0.899-0.3l2.184-1.639 3.916 2.938zM15 10.375l-3.5-2.625 3.5-2.625v5.25zM8.6 9.301c-0.175 0.131-0.382 0.2-0.6 0.2s-0.425-0.069-0.6-0.2l-6.4-4.801c0-0.551 0.449-1 1-1h12c0.551 0 1 0.449 1 1l-6.401 4.801z"></path>
</svg>

<svg xmlns="http://www.w3.org/2000/svg" width="16" height="16"><path fill="#ffc133" d="M14 2.5H2a2 2 0 0 0-2 2V11a2 2 0 0 0 2 2h12a2 2 0 0 0 2-2V4.5a2 2 0 0 0-2-2zM1 5.125L4.499 7.75 1 10.375v-5.25zM15 11c0 .552-.449 1-1 1H2c-.551 0-1-.448-1-1l3.916-2.938L7.1 9.701a1.502 1.502 0 0 0 1.799 0l2.184-1.639L14.999 11zm0-.625L11.5 7.75 15 5.125v5.25zM8.6 9.301c-.175.131-.382.2-.6.2s-.425-.069-.6-.2L1 4.5c0-.551.449-1 1-1h12c.551 0 1 .449 1 1L8.599 9.301z"/></svg>
